public/headerImg/vk.svg

<svg width="15" height="15" viewBox="0 0 15 15" fill="none" xmlns="http://www.w3.org/2000/svg">
<g clip-path="url(#clip0_130_60)">
<path fill-rule="evenodd" clip-rule="evenodd" d="M7.23276 2.80341C6.59912 2.73955 5.95913 2.80931 5.35412 3.00818C5.09675 3.14344 4.89949 3.44966 5.01973 3.46469C5.28278 3.49435 5.52348 3.62668 5.68946 3.8329C5.84584 4.18034 5.92193 4.55854 5.91208 4.93942C5.91208 4.93942 6.04077 7.05289 5.59835 7.31872C5.29401 7.49907 4.87883 7.13085 3.97802 5.45135C3.67295 4.86166 3.40381 4.25406 3.17208 3.63189C3.13191 3.5283 3.06749 3.43586 2.98422 3.3623C2.88041 3.28723 2.76201 3.23476 2.63667 3.20825L0.488446 3.22234C0.328475 3.22543 0.174364 3.2831 0.0516624 3.38579C0.022676 3.45061 0.00699238 3.52059 0.00554026 3.59158C0.00408814 3.66257 0.0168971 3.73313 0.0432085 3.79909C0.0432085 3.79909 1.72365 8.06642 3.62765 10.2165C4.07725 10.7761 4.64349 11.2309 5.2869 11.5492C5.9303 11.8675 6.63539 12.0416 7.353 12.0595H8.25286C8.40478 12.041 8.54706 11.9753 8.65959 11.8716C8.74382 11.7445 8.78739 11.5948 8.78452 11.4423C8.78452 11.4423 8.76667 10.1357 9.32463 9.93942C9.88258 9.7431 10.5805 11.2047 11.331 11.7626C11.4673 11.8825 11.6265 11.9736 11.7989 12.0304C11.9712 12.0872 12.1533 12.1086 12.3342 12.0933L14.3406 12.0604C14.4577 12.0721 14.5757 12.0495 14.6802 11.9954C14.7847 11.9413 14.8713 11.858 14.9294 11.7556C14.9875 11.6533 15.0146 11.5362 15.0075 11.4188C15.0003 11.3013 14.9592 11.1884 14.8892 11.0938C14.5026 10.3904 13.9999 9.75748 13.4022 9.22178C12.1407 7.95652 12.3088 8.16129 13.8258 5.96985C14.7473 4.63414 15.1165 3.81881 15.0009 3.46563C14.9019 3.36003 14.777 3.28212 14.6386 3.23961C14.5002 3.1971 14.3531 3.19148 14.2119 3.22328L11.9519 3.23737C11.8513 3.22514 11.7495 3.24486 11.6607 3.29373C11.5741 3.36434 11.5063 3.45536 11.4635 3.55862C11.2291 4.21459 10.9498 4.85359 10.6275 5.47108C9.62427 7.32248 9.21849 7.4258 9.05504 7.30933C8.67274 7.03974 8.76761 6.22911 8.76761 5.65706C8.76761 3.85638 9.02123 3.1115 8.27917 2.91613C7.93801 2.82619 7.58525 2.78819 7.23276 2.80341Z" fill="white"/>
</g>
<defs>
<clipPath id="clip0_130_60">
<rect width="15" height="15" fill="white"/>
</clipPath>
</defs>
</svg>

<svg width="15" height="15" fill="none" xmlns="http://www.w3.org/2000/svg"><g clip-path="url(#a)"><path fill-rule="evenodd" clip-rule="evenodd" d="M7.233 2.803a4.554 4.554 0 0 0-1.879.205c-.257.135-.455.442-.334.457.263.03.503.162.67.368.156.347.232.726.222 1.106 0 0 .129 2.114-.314 2.38-.304.18-.72-.188-1.62-1.868a16.472 16.472 0 0 1-.806-1.82.695.695 0 0 0-.188-.269.917.917 0 0 0-.347-.154l-2.149.014a.702.702 0 0 0-.436.164.53.53 0 0 0-.009.413s1.68 4.267 3.585 6.418a4.936 4.936 0 0 0 3.725 1.842h.9a.73.73 0 0 0 .407-.187.751.751 0 0 0 .125-.43s-.018-1.306.54-1.503c.558-.196 1.256 1.266 2.006 1.824a1.346 1.346 0 0 0 1.003.33l2.007-.033a.607.607 0 0 0 .548-.966 7.117 7.117 0 0 0-1.487-1.872c-1.261-1.265-1.093-1.06.424-3.252.921-1.336 1.29-2.151 1.175-2.504a.831.831 0 0 0-.79-.243l-2.26.014a.483.483 0 0 0-.29.057.676.676 0 0 0-.197.265 15.152 15.152 0 0 1-.837 1.912C9.624 7.322 9.218 7.426 9.055 7.31c-.382-.27-.287-1.08-.287-1.652 0-1.8.253-2.546-.489-2.74a3.51 3.51 0 0 0-1.046-.114Z" fill="#fff"/></g><defs><clipPath id="a"><path fill="#fff" d="M0 0h15v15H0z"/></clipPath></defs></svg>
